X:2047
T:Because He Was a Bonny Lad
R:Polka
C:Trad.
O:Scotland
Z:Paul Hardy's Session Tunebook 2022 (see www.paulhardy.net). Creative Commons cc by-nc-sa licenced.
M:2/2
L:1/8
Q:1/4=100
K:G
d|"G"B>A Gg "C"e/f/g "G"d>B|"D7"ce "G"dB "Am"A/A/A "D7"A>d|"G"B>A Gg "C"eg "G"d>B|"C"c<e "D"dB "G"G/G/G G:|
d|"G"B>A GB "C"cd e<c|"G"BG dB "D7"A/A/A A>c|"G"B>A GB "C"cd e>f|"G"g/f/e/d/ gB G/G/G G||
d|"G"BG dG "C"e>G dG|"G"B<G dB "D7"A/A/A A>f|"G"ge "D"fd "C"ec "G"dB|"C"c<e "D"dB "G"G/G/G G|]

